icons/svg/icons8/clubs.svg

<svg width="26" height="26" viewBox="0 0 26 26" fill="none" xmlns="http://www.w3.org/2000/svg">
<path d="M9.28906 24.898C11.7631 24.454 14.2561 24.473 16.7111 24.898C14.2561 21.207 13.0001 13.51 13.0001 13.51C13.0001 13.51 11.7631 21.207 9.28906 24.898Z" fill="#333333"/>
<path d="M13 1.10699C10.342 1.10699 8.18701 3.26199 8.18701 5.91999C8.18701 9.97399 12.383 11.317 12.383 14.893H13.615C13.615 11.33 17.811 10.015 17.811 5.91999C17.813 3.26299 15.658 1.10699 13 1.10699Z" fill="#333333"/>
<path d="M24.8929 15C24.8929 12.342 22.7379 10.187 20.0799 10.187C16.0259 10.187 14.6829 14.383 11.1069 14.383V15.615C14.6699 15.615 15.9849 19.811 20.0799 19.811C22.7369 19.813 24.8929 17.658 24.8929 15Z" fill="#333333"/>
<path d="M1.10693 15C1.10693 17.658 3.26193 19.813 5.91993 19.813C9.97393 19.813 11.3169 15.617 14.8929 15.617V14.385C11.3299 14.385 10.0149 10.189 5.91993 10.189C3.26293 10.188 1.10693 12.342 1.10693 15Z" fill="#333333"/>
</svg>

<?xml version="1.0" encoding="utf-8"?>
<!-- Generator: Adobe Illustrator 15.0.0, SVG Export Plug-In . SVG Version: 6.00 Build 0)  -->
<!DOCTYPE svg PUBLIC "-//W3C//DTD SVG 1.1//EN" "http://www.w3.org/Graphics/SVG/1.1/DTD/svg11.dtd">
<svg version="1.1" id="Layer_1" xmlns="http://www.w3.org/2000/svg" xmlns:xlink="http://www.w3.org/1999/xlink" x="0px" y="0px"
	 width="26px" height="26px" viewBox="0 0 26 26" enable-background="new 0 0 26 26" xml:space="preserve">
<rect fill="none" width="26" height="26"/>
<path fill="#333333" d="M9.289,24.898c2.474-0.444,4.967-0.425,7.422,0C14.256,21.207,13,13.51,13,13.51S11.763,21.207,9.289,24.898
	z"/>
<path fill="#333333" d="M13,1.107c-2.658,0-4.813,2.155-4.813,4.813c0,4.054,4.196,5.397,4.196,8.973h1.232
	c0-3.563,4.196-4.878,4.196-8.973C17.813,3.263,15.658,1.107,13,1.107z"/>
<path fill="#333333" d="M24.893,15c0-2.658-2.155-4.813-4.813-4.813c-4.054,0-5.397,4.196-8.973,4.196v1.232
	c3.563,0,4.878,4.196,8.973,4.196C22.737,19.813,24.893,17.658,24.893,15z"/>
<path fill="#333333" d="M1.107,15c0,2.658,2.155,4.813,4.813,4.813c4.054,0,5.397-4.196,8.973-4.196v-1.232
	c-3.563,0-4.878-4.196-8.973-4.196C3.263,10.188,1.107,12.342,1.107,15z"/>
</svg>
